!!!CDT:
!!!PTL: Il primo libro de madrigali a sei voci
!!!PPP: Venice
!!!PPR: Angelo Gardano
!!!PDT: 1590
!!!PUB-format:
!!!RISM: M 1503
!!!rime: 59
!!!AGN: Madrigal
!!!SCT: Trm0059a
!!!SCA: Trm0059a
!!!original-voices: 6
!!!extant-voices: 2
!!!complete: N
!!!final: E
!!!COM: Mazza, Francesco
!!!OTL: Lunge da voi, ben mio
**kern	**text	**kern	**text
*part2	*part2	*part1	*part1
*staff2	*staff2	*staff1	*staff1
*I"Quinto	*	*I"Tenore	*
*I'V	*	*I'T	*
*oclefF4	*	*oclefC4	*
*clefF4	*	*clefGv2	*
*k[]	*	*k[]	*
*omet(C)	*	*omet(C)	*
*M4/2	*	*M4/2	*
=1	=1	=1	=1
0r	.	1E	Lun-
.	.	2G#X	-ge
.	.	2A	da
=2	=2	=2	=2
0r	.	4B	voi,
.	.	4c	ben
.	.	2B	mi-
.	.	4A	-o,
.	.	4c	Lun-
.	.	4c	-ge
.	.	4c	da
=3	=3	=3	=3
1r	.	4d	voi,
.	.	4e	ben
.	.	4.c	mi-
.	.	8d	.
2r	.	2e	.
2E	Non	2e	-o,
=4	=4	=4	=4
2C#X	ho	2E	Non
2.D	vi-	2.F	ho
4D	-ta	4D	vi-
2BB	né	4D	-ta
.	.	4D	né
=5	=5	=5	=5
2AA	co-	2.E	co-
2.A	-r'e	.	.
.	.	4E	-r'e
.	.	4F#X	non
2G	non	4G	so-
.	.	2A	-n'i-
4F#X	so-	.	.
=6	=6	=6	=6
2G	-n'i-	4G	-o,
.	.	4B	e
2GG	-o.	4B	non
.	.	4d	so-
1r	.	1d	-n'i-
=7	=7	=7	=7
1r	.	1d	-o.
2G	Non	4r	.
.	.	4G	Non
[2A	so-	[2c	so-
=8	=8	=8	=8
4A]	.	4c]	.
4F	-n'ahi-	4A	-n'ahi-
2.E	-mè,	2B	-mè,
.	.	2c	non
4F	non	.	.
2D	so-	2d	so-
=9	=9	=9	=9
2C	-no	4G	-no
.	.	4c	Quel
2r	.	4A	ch'al-
.	.	4A	-tra
1r	.	4G	vol-
.	.	4F#X	-ta
.	.	2G	fui,
=10	=10	=10	=10
1G	ma u-	1B	ma u-
1E	-n'om-	2c	-n'om-
.	.	2G	-bra
=11	=11	=11	=11
2E	-bra	2.A	me-
1E	me-	.	.
.	.	4B	.
.	.	2c	.
2E	-sta,	2B	-sta,
=12	=12	=12	=12
0r	.	2r	.
.	.	2B	Un
.	.	2B	la-
.	.	2A	-gri-
=13	=13	=13	=13
0r	.	2E	-me-
.	.	2E	-vol
.	.	1G#X	suo-
=14	=14	=14	=14
0r	.	1G#i	-no,
.	.	1r	.
=15	=15	=15	=15
0r	.	0r	.
=16	=16	=16	=16
4r	.	0r	.
4A	e	.	.
4A	ciò	.	.
4A	mi	.	.
2G	re-	.	.
2C	-sta	.	.
=17	=17	=17	=17
4F	So-	1r	.
8F	-lo	.	.
8E	per	.	.
4D	vo-	.	.
4D	-stro	.	.
1E	do-	2r	.
.	.	2E	Ma
=18	=18	=18	=18
1AA	-no:	2.A	re-
.	.	4B	.
1r	.	2c	.
.	.	2B	-sta il
=19	=19	=19	=19
1r	.	2c	ma-
.	.	4B	.
.	.	4A	.
2r	.	2c	.
2E	Ma	2B	-le,
=20	=20	=20	=20
2.F	re-	0r	.
4G	.	.	.
1A	.	.	.
=21	=21	=21	=21
1G	-sta il	2r	.
.	.	2G	<Ma
2.F	ma-	2.A	re-
4E	.	4G	.
=22	=22	=22	=22
1D	.	2A	.
.	.	2B	-sta il
1C	-le	1c	ma-
=23	=23	=23	=23
0r	.	1G	-le>
.	.	1r	.
=24	=24	=24	=24
2r	.	1r	.
2D	on-	.	.
2.AA	-de	2r	.
.	.	2E	on-
4AA	mo-	.	.
=25	=25	=25	=25
2.A	-rir	2E	-de
.	.	2E	mo-
8GL	.	.	.
8FJ	.	.	.
[1E	.	2.e	-rir
.	.	4d	.
=26	=26	=26	=26
2E]	.	4c	.
.	.	4B	.
2E	de-	2.A	.
1E	-si-	.	.
.	.	4B	de-
.	.	2c	-si-
=27	=27	=27	=27
0El	-o.	0Bl	-o.
==	==	==	==
*-	*-	*-	*-
!!!system-decoration: [*]
!!!RDF**kern: i = editorial accidental
!!!RDF**kern: l = terminal long
!!!ENC: Emiliano Ricciardi
!!!END: 2018
!!!EED: Ricciardi, Emiliano
!!!EEV: 2018/09/18
!!!YEC: Copyright 2018 Emiliano Ricciardi, All Rights Reserved
!!!ONB: Translated from MusicXML on 2018/09/18 and edited by Craig Stuart Sapp
!!@@BEGIN:	VERSEDATA
!!@SOLERTI:	59
!!@CATALOGNUM:	Trm0059
!!@LAST_MODIFIED: 2020/07/12
!!@TITLE:		Lunge da voi, ben mio
!!@GENRE:		madrigale
!!@MANUSRC:	C, V<sub>8</sub>
!!@PRINTSRC:	27, 48, 70, 141, 145, 166, 169
!!@@BEGIN:	VERSES
!!@ABOUTIT:	Lontano da la sua donna dice di non esser più quel ch'egli era ma l'ombra sua.
!!@ABOUTEN:	Away from his lady, he says that he is no longer what he used to be, but only its shadow.
!!@EDITOR:	Solerti, Angelo
!!@EDITION_TITLE: Le Rime di Torquato Tasso
!!@EDITION_LOC:	Bologna
!!@EDITION_PUB:	Romagnoli-Dall’Acqua
!!@EDITION_DATE:  1898-1902
!!@EDITION_VOL:	2
!!@EDITION_PAGE:  87
!!@TRANSLATOR:	Maria Pastore Passaro; adapted by Emiliano Ricciardi and Amyrose McCue Gill
!!@TRANSLATION_TITLE: Rhymes of Love
!!@TRANSLATION_LOC: Mineola, NY
!!@TRANSLATION_PUB: Legas
!!@TRANSLATION_DATE: 2011
!!@TRANSLATION_PAGE: 66-67
!!@VERSE:
!!	Lunge da voi, ben mio,
!!	Non ho vita né core e non son io.
!!	Non sono, oimé!, non sono
!!	Quel ch'altra volta fui, ma un'ombra mesta,
!!	Un lagrimevol suono,
!!	Una voce dolente; e ciò mi resta
!!	Solo per vostro dono:
!!	Ma resta il male onde morir desio.
!!@TVERSE:
!!	Far from you, my dear,
!!	I have no life nor heart, and am not myself.
!!	I am not, oh dear!, I am not
!!	What I once was, but [now] a miserable shadow,
!!	A tearful tone,
!!	An aching voice; and this is all that remains to me
!!	Only because of your gift;
!!	But the ill remains so that I wish to die.
!!@@END:		VERSES
!!@OTHER_CRIT_ED:   Torquato Tasso, <i>Rime d’amore (secondo il codice
!!		Chigiano L VIII 302)</i>, eds. Franco Gavazzeni and
!!		Vercingetorige Martignone, vol. 4 of <i>Edizione
!!		Nazionale delle opere di Torquato Tasso</i>
!!		(Alessandria: Edizioni Dell’Orso, 2004), 43.
!!@ATTRIBUTION_ABOUT:	Secure
!!		<br>
!!		This poem appears in the autograph Chigiano
!!		L.VIII.302 (Biblioteca Vaticana, Rome), compiled
!!		around 1584&ndash;85 (see Literary Sources).
!!@DATING:
!!@DEDICATEE:	Bendidio, Lucrezia
!!@COMMENTARY:
!!@@END:		VERSEDATA
!!@@BEGIN:	SETTING
!!@CATALOGNUM:	Trm0059a
!!@RIMETITLE:	Lunge da voi, ben mio
!!@SOLERTI:	59
!!@COMPOSER:	Mazza, Francesco
!!@PRINCEPSTITLE:	Il primo libro de madrigali a sei voci
!!@PRINCEPSLOC:	Venetia
!!@NORMLOC:	Venice
!!@NORMPUB:	Angelo Gardano
!!@NORMPUBSHORT:	Gardano
!!@PRINCEPSPUB:	Gardano
!!@PRINCEPSYEAR:	1590
!!@PRINCEPSRISM:	M 1503
!!@REPRINTS:	
!!@OVOICES:	6
!!@EXTANTVOICES:	2
!!@PARTBOOKS:	
!!@EXTPARTBOOKS:	
!!@OCLEFS:	C4,F4
!!@OMENSURATION:	C
!!@OKEYSIG:	-
!!@FINAL:	E
!!@TIMPEDITOR:	Ricciardi, Emiliano
!!@NOTE:		
!!@@END:		SETTING
